X:9
T:9 Miss Baker's Hornpipe
C:Aylmore MS
I:abc2nwc
M:C
L:1/8
K:G
dc|A2G2-GBAG|FA c2cedc|Bdef gdec|B2G2G2:|
(3def|gdBd gbag|afdf ac'ba|bgaf geag|f2d2d2gd|
(3efg (3Bcd c2c'b|agfe ddcB|(3cde (3FGA Gedc|B2G2G2:|


